X:1
T: The Highland Mistrel Boy
C:
R:Strathspey
Q: 128
K:G
M:4/4
L:1/16
|:G2|B3G D3G E3G D3G|EA3 A3G FA3 d3c|B3G D3G E3G D3G|DG3 B3A G4 G3A|
B3G D3G E3G D3G|EA3 A3G FA3 d3c|B3G D3G E3G D3G|DG3 B3A G4 G3A|
B3c d3B A3G E3D|EA3 A3G FA3 d3c|c3B A3G GE3 D3E|DG3 B3A G4 G3A|
B3c d3B A3G E3D|EA3 A3G FA3 d3c|c3B A3G GE3 D3E|DG3 B3A G6:|
